svgs/xbox_game_pass.svg

<svg width="192" height="192" viewBox="0 0 192 192" fill="none" xmlns="http://www.w3.org/2000/svg">
<path d="M60.3156 85.9667C56.5286 80.2376 54.6837 74.6056 53.8097 66.3518C53.5184 63.6329 53.6155 62.0793 54.4895 56.5444C55.5576 49.6501 59.5388 41.6877 64.1998 36.7354C66.2389 34.5991 66.4331 34.5991 68.8607 35.3759C71.8709 36.347 74.9782 38.5804 79.9305 43.0471L82.8436 45.6689L81.2899 47.6109C74.0072 56.5444 66.2389 69.2649 63.4229 77.1303L60.4127 85.8696L60.3156 85.9667ZM131.686 85.9667C135.473 80.2376 137.318 74.6056 138.192 66.3518C138.484 63.6329 138.387 62.0793 137.513 56.5444C136.444 49.6501 132.463 41.6877 127.802 36.7354C125.763 34.5991 125.569 34.5991 123.141 35.3759C120.131 36.347 117.024 38.5804 112.072 43.0471L109.158 45.6689L110.712 47.6109C117.995 56.5444 125.763 69.2649 128.579 77.1303L131.589 85.8696L131.686 85.9667ZM74.0072 100.047C79.3478 103.542 85.6595 105.776 91.777 106.358C96.9235 106.844 103.235 106.261 107.993 104.708C113.819 102.863 121.685 98.1045 122.947 95.677C124.598 92.4726 121.296 85.2869 114.111 76.5477C109.547 71.0128 97.5061 59.2633 95.9525 58.972C95.1756 58.7778 87.99 65.1866 82.8436 70.6244C73.7159 80.2376 68.3752 88.6855 68.3752 93.5407C68.3752 98.3958 69.3462 97.1335 73.9101 100.047H74.0072ZM113.722 26.7338C107.411 20.4221 84.4943 20.4221 78.1826 26.7338C92.4568 29.3556 95.9525 31.8802 95.9525 31.8802C95.9525 31.8802 99.3511 29.2585 113.722 26.7338Z" stroke="black" stroke-width="12" stroke-linejoin="round"/>
<path d="M92.554 171.223H88.1843C87.893 169.67 87.7959 167.436 87.6988 162.678C84.5915 169.281 79.0566 172 70.4145 172C55.4606 172 48.3721 159.571 48.3721 143.84C48.3721 128.109 56.7229 115.195 72.5507 115.195C88.3785 115.195 90.9032 121.118 92.7482 131.023H87.3104C85.3683 124.031 80.9987 119.856 72.2594 119.856C59.7331 119.856 54.004 130.343 54.004 143.937C54.004 157.532 59.2476 167.533 71.0942 167.533C82.9408 167.533 87.2133 158.406 87.2133 147.045V146.753H71.2884V141.995H92.554V171.126V171.223Z" fill="black" stroke="black" stroke-width="8" stroke-linejoin="round"/>
<path d="M105.954 115.971H124.598C135.182 115.971 142.562 121.215 142.562 130.828C142.562 140.441 134.891 146.559 123.627 146.559H111.489V171.223H105.954V115.971ZM111.489 141.995H123.53C131.395 141.995 136.93 139.47 136.93 130.925C136.93 122.38 131.492 120.438 123.53 120.438H111.489V141.995Z" fill="black" stroke="black" stroke-width="8" stroke-linejoin="round"/>
</svg>

<svg xmlns="http://www.w3.org/2000/svg" width="192" height="192" fill="none" viewBox="0 0 192 192"><path stroke="#000" stroke-linejoin="round" stroke-width="12" d="M60.316 85.967c-3.787-5.73-5.632-11.361-6.506-19.615-.292-2.72-.195-4.273.68-9.808 1.068-6.894 5.049-14.856 9.71-19.809 2.039-2.136 2.233-2.136 4.66-1.36 3.01.972 6.118 3.205 11.07 7.672l2.914 2.622-1.554 1.942c-7.283 8.933-15.051 21.654-17.867 29.52l-3.01 8.739-.097.097Zm71.37 0c3.787-5.73 5.632-11.361 6.506-19.615.292-2.72.195-4.273-.679-9.808-1.069-6.894-5.05-14.856-9.711-19.809-2.039-2.136-2.233-2.136-4.661-1.36-3.01.972-6.117 3.205-11.069 7.672l-2.914 2.622 1.554 1.942c7.283 8.933 15.051 21.654 17.867 29.52l3.01 8.739.097.097Zm-57.679 14.08c5.34 3.495 11.652 5.729 17.77 6.311 5.147.486 11.458-.097 16.216-1.65 5.826-1.845 13.692-6.603 14.954-9.031 1.651-3.204-1.651-10.39-8.836-19.13-4.564-5.534-16.605-17.284-18.159-17.575-.776-.194-7.962 6.215-13.108 11.652-9.128 9.614-14.469 18.062-14.469 22.917s.971 3.593 5.535 6.506h.097Zm39.715-73.313c-6.311-6.312-29.228-6.312-35.54 0 14.275 2.622 17.77 5.146 17.77 5.146s3.4-2.621 17.77-5.146Z"/><path fill="#000" stroke="#000" stroke-linejoin="round" stroke-width="8" d="M92.554 171.223h-4.37c-.291-1.553-.388-3.787-.485-8.545C84.59 169.281 79.057 172 70.415 172c-14.954 0-22.043-12.429-22.043-28.16s8.35-28.645 24.179-28.645c15.828 0 18.352 5.923 20.197 15.828H87.31c-1.942-6.992-6.311-11.167-15.05-11.167-12.527 0-18.256 10.487-18.256 24.081 0 13.595 5.244 23.596 17.09 23.596 11.847 0 16.12-9.127 16.12-20.488v-.292H71.287v-4.758h21.266v29.228ZM105.954 115.971h18.644c10.584 0 17.964 5.244 17.964 14.857s-7.671 15.731-18.935 15.731h-12.138v24.664h-5.535v-55.252Zm5.535 26.024h12.041c7.865 0 13.4-2.525 13.4-11.07s-5.438-10.487-13.4-10.487h-12.041v21.557Z"/></svg>
